packages/ui-solid/icons/folder_24.svg

<svg width="24" height="24" viewBox="0 0 24 24" fill="none" xmlns="http://www.w3.org/2000/svg">
<path fill-rule="evenodd" clip-rule="evenodd" d="M9.37857 5.29487C9.23557 5.27261 9.07828 5.27011 8.57289 5.27011H8.15361C7.11992 5.27011 6.41042 5.27114 5.8651 5.32505C5.33409 5.37754 5.05638 5.47312 4.85743 5.60122C4.60775 5.76197 4.39539 5.97433 4.23463 6.22402C4.10654 6.42296 4.01096 6.70068 3.95847 7.23168C3.90456 7.777 3.90353 8.4865 3.90353 9.52019V13.6368C3.90353 15.0669 3.90544 16.049 4.0046 16.7865C4.10028 17.4981 4.2714 17.8459 4.51269 18.0872C4.75397 18.3285 5.10175 18.4996 5.81339 18.5953C6.55092 18.6944 7.53298 18.6964 8.9631 18.6964H15.0449C16.4751 18.6964 17.4571 18.6944 18.1947 18.5953C18.9063 18.4996 19.2541 18.3285 19.4954 18.0872C19.7366 17.8459 19.9078 17.4981 20.0034 16.7865C20.1026 16.049 20.1045 15.0669 20.1045 13.6368V12.6627C20.1045 11.2934 20.1027 10.3531 20.0112 9.64419C19.9227 8.959 19.764 8.62015 19.5422 8.38348C19.5115 8.35073 19.4797 8.31898 19.447 8.28829C19.2103 8.06647 18.8715 7.90773 18.1863 7.81926C17.4773 7.72772 16.5371 7.72596 15.1678 7.72596H14.4621C14.441 7.72596 14.4201 7.72596 14.3995 7.72597C13.9823 7.72608 13.6775 7.72616 13.3796 7.67978C12.7616 7.58357 12.176 7.33938 11.6727 6.96803C11.4301 6.789 11.2157 6.57238 10.9222 6.27592C10.9077 6.26128 10.893 6.24644 10.8781 6.23139C10.5224 5.87234 10.41 5.76234 10.2935 5.67641C10.0237 5.47734 9.70985 5.34644 9.37857 5.29487ZM8.63554 3.4701C9.05271 3.46999 9.35754 3.46991 9.65546 3.51629C10.2735 3.6125 10.859 3.85669 11.3623 4.22805C11.6049 4.40707 11.8194 4.6237 12.1129 4.92017C12.1273 4.93481 12.142 4.94964 12.1569 4.96468C12.5126 5.32374 12.625 5.43374 12.7415 5.51966C13.0113 5.71873 13.3252 5.84963 13.6564 5.9012C13.7994 5.92347 13.9567 5.92596 14.4621 5.92596L15.2293 5.92596C16.522 5.92593 17.579 5.92591 18.4168 6.03408C19.2915 6.14702 20.055 6.39112 20.6779 6.97497C20.739 7.03223 20.7982 7.09145 20.8555 7.15255C21.4393 7.77547 21.6834 8.53894 21.7964 9.41369C21.9046 10.2514 21.9045 11.3085 21.9045 12.6012V13.7011C21.9045 15.0511 21.9046 16.1548 21.7874 17.0263C21.6649 17.9376 21.3996 18.7285 20.7681 19.36C20.1367 19.9915 19.3457 20.2567 18.4345 20.3792C17.563 20.4964 16.4592 20.4964 15.1093 20.4964H8.89873C7.54882 20.4964 6.44508 20.4964 5.57355 20.3792C4.66231 20.2567 3.87137 19.9915 3.2399 19.36C2.60842 18.7285 2.34317 17.9376 2.22065 17.0263C2.10348 16.1548 2.1035 15.0511 2.10353 13.7012L2.10353 9.47416C2.10352 8.49775 2.1035 7.69893 2.1672 7.05461C2.2333 6.38589 2.3749 5.78744 2.72119 5.24959C3.02108 4.78382 3.41724 4.38766 3.88301 4.08778C4.42086 3.74149 5.01931 3.59988 5.68803 3.53378C6.33235 3.47009 7.13117 3.4701 8.10758 3.47011L8.57289 3.47011C8.59406 3.47011 8.61494 3.47011 8.63554 3.4701Z" fill="#007AFF"/>
</svg>

<svg xmlns="http://www.w3.org/2000/svg" width="24" height="24" fill="none"><path fill="currentColor" fill-rule="evenodd" d="M9.379 5.295c-.143-.022-.3-.025-.806-.025h-.42c-1.033 0-1.743.001-2.288.055-.53.053-.809.148-1.008.276a2.1 2.1 0 0 0-.622.623c-.128.199-.224.477-.277 1.008-.053.545-.054 1.254-.054 2.288v4.117c0 1.43.001 2.412.1 3.15.096.711.267 1.059.509 1.3.241.241.589.413 1.3.508.738.1 1.72.101 3.15.101h6.082c1.43 0 2.412-.002 3.15-.1.711-.096 1.06-.268 1.3-.509.242-.241.413-.589.508-1.3.1-.738.102-1.72.102-3.15v-.974c0-1.37-.002-2.31-.094-3.019-.088-.685-.247-1.024-.469-1.26a2 2 0 0 0-.095-.096c-.237-.222-.575-.38-1.26-.469-.71-.091-1.65-.093-3.02-.093H14.4c-.418 0-.723 0-1.02-.046a3.9 3.9 0 0 1-1.707-.712c-.243-.179-.457-.396-.75-.692l-.045-.045c-.356-.359-.468-.469-.585-.555a2.1 2.1 0 0 0-.914-.381M8.636 3.47c.417 0 .722 0 1.02.046a3.9 3.9 0 0 1 1.706.712c.243.18.457.396.75.692l.045.045c.356.359.468.469.585.555.27.199.583.33.914.381.143.022.3.025.806.025h.767c1.293 0 2.35 0 3.188.108.874.113 1.638.357 2.26.941q.093.085.178.178c.584.622.828 1.386.941 2.26.109.838.108 1.896.108 3.188v1.1c0 1.35 0 2.454-.117 3.325-.122.912-.387 1.703-1.019 2.334s-1.422.897-2.334 1.02c-.871.116-1.975.116-3.325.116H8.9c-1.35 0-2.454 0-3.325-.117-.912-.122-1.703-.388-2.334-1.019-.632-.631-.897-1.422-1.02-2.334-.117-.871-.117-1.975-.116-3.325V9.474c0-.976 0-1.775.063-2.42.066-.668.208-1.267.554-1.804a3.9 3.9 0 0 1 1.162-1.162c.538-.347 1.136-.488 1.805-.554.644-.064 1.443-.064 2.42-.064h.528" clip-rule="evenodd"/></svg>
